!!!COM:	Bach, Johann Sebastian
!!!CDT:	1685/02/21/-1750/07/28/
!!!OTL@@DE:	Gott des Himmels und der Erden
!!!SCT:	BWV 248/53
!!!PC#:	35
!!!AGN:	chorale
**kern	**kern	**kern	**kern
*ICvox	*ICvox	*ICvox	*ICvox
*Ibass	*Itenor	*Ialto	*Isoprn
*I"Bass	*I"Tenor	*I"Alto	*I"Soprano
*>[A,A,B]	*>[A,A,B]	*>[A,A,B]	*>[A,A,B]
*>norep[A,B]	*>norep[A,B]	*>norep[A,B]	*>norep[A,B]
*>A	*>A	*>A	*>A
*clefF4	*clefGv2	*clefG2	*clefG2
*k[f#c#g#]	*k[f#c#g#]	*k[f#c#g#]	*k[f#c#g#]
*A:	*A:	*A:	*A:
*M4/4	*M4/4	*M4/4	*M4/4
*met(c)	*met(c)	*met(c)	*met(c)
*MM100	*MM100	*MM100	*MM100
=1-	=1-	=1-	=1-
4A	4c#	4e	4a
4G#	4B	4e	4b
4F#	8AL	4a	8cc#L
.	8BJ	.	8ddJ
8C#L	8c#L	8aL	4ee
8BBJ	8dJ	[8g#J	.
=2	=2	=2	=2
8C#L	8eL	8g#]	4a
8D#J	8BJ	4f#	.
4E	4B	.	4g#
.	.	[8e	.
4BB	8.BL	8eL]	4f#
.	.	8d#J	.
.	16AJk	.	.
4E;	4G#;	4B;	4e;
=3	=3	=3	=3
4BB	8BnXL	8dL	4f#
.	8c#J	8c#J	.
8BL	8dL	4B	4g#
16c#L	8eJ	.	.
16dJJ	.	.	.
8c#L	4A	4e	4a
8BJ	.	.	.
8AL	4E	4e	4b
8G#J	.	.	.
=4	=4	=4	=4
8AL	4.A	8eL	8cc#L
8DJ	.	8f#J	8ddJ
4E	.	4e	4b
.	8G#	.	.
2AA;	2c#;	2e;	2a;
=5:|!	=5:|!	=5:|!	=5:|!
*>B	*>B	*>B	*>B
8AL	4e	4a	4cc#
8G#J	.	.	.
4F#	8eL	4a	4cc#
.	8d#J	.	.
8G#L	8eL	8eL	4b
8F#J	8dJ	8f#J	.
4E	8c#L	4g#	4cc#
.	8BJ	.	.
=6	=6	=6	=6
8F#L	8AL	4f#	4dd
8G#J	8BJ	.	.
4A	8c#L	8eL	8cc#L
.	8d#J	8f#J	8bJ
4E	4e	8g#L	8bL
.	.	8f#J	8aJ
4E;	4e;	4g#;	4b;
=7	=7	=7	=7
8EL	8A#L	8c#L	4f#
8DnX	8BJ	8dnXJ	.
8C#	4B	[4e	4g#
8BBJ	.	.	.
8C#L	4A	8eL]	4a
8F#	.	16dL	.
.	.	16c#JJ	.
8E	4A	4f#	4b
8DJ	.	.	.
=8	=8	=8	=8
4E	8AL	4e	8cc#L
.	8BJ	.	8ddJ
4E	8G#L	4e	4b
.	8dJ	.	.
4AA	8c#L	8eL	8aL
.	8BJ	8dJ	8g#J
4AA;	4c#;	4e;	4a;
==	==	==	==
*-	*-	*-	*-
!!!hum2abc: -Q ''
!!!title: @{PC#}. @{OTL@@DE}
!!!YOR1: 371 vierstimmige Choralges&auml;nge von Johann Sebastian Bach, 
!!!YOR2: 4th ed. by Alfred D&ouml;rffel (Leipzig: Breitkopf und H&auml;rtel, 
!!!YOR2: c.1875). 178 pp. Plate "V.A.10".  reprint: J.S. Bach, 371 Four-Part 
!!!YOR4: Chorales (New York: Associated Music Publishers, Inc., c.1940).
!!!SMS: B&H, 4th ed, Alfred D&ouml;rffel, c.1875, plate V.A.10
!!!EED:  Craig Stuart Sapp
!!!EEV:  2009/05/22
